X:180
M:4/4
L:1/4
K:C
D2 F G | A D G F | E2 z G | A c c B | A B c2 | z G A c | c B A ^G | A2 z !sintro!D | A A c A | (G/A/ F) E2 | E4 !eintro!|]
